X:107
T:107 Leavie Gordon
C:Welch MS
I:abc2nwc
M:C
L:1/8
K:G
G3/2A/2 B3/2A/2 GE A2|G3/2A/2 B3/2c/2 de g2|ed gB AG A2|G3/2A/2 B3/2A/2 GE G2||
G2B3/2A/2 GE G2|G3/2A/2 B3/2c/2 de g2|e3/2d/2 gB AG A A3/4|G3/2A/2 B3/2A/2 G3/2E/2 G3/4|]

